X: 528
T: Wuge fangyang
%%abc-version 2.0
%%abcx-abcm2ps-target-version 5.9.1 (29 Sep 2008)
%%abc-creator hum2abc beta
%%abcx-conversion-date 2013/10/02 07:52:30
%%abc-edited-by Helmut Schaffrath
%%humdrum-veritas 3525909081
%%humdrum-veritas-data 3241822634
%%continueall 1
%%barnumbers 0
L: 1/8
M: 2/4
K: Eb
c c/ c/ c g [I:setbarnb 1]| 
f2e2 | 
e cB2 | 
B B f c | 
B AF2 | 
F> A F A | 
A FB2 | 
B cf2 | 
c2B A | 
F4 |]  



